icons/Finance/money-euro-box-fill.svg

<svg viewBox="0 0 24 24" xmlns="http://www.w3.org/2000/svg"><path d="M3.00488 3.00293H21.0049C21.5572 3.00293 22.0049 3.45064 22.0049 4.00293V20.0029C22.0049 20.5552 21.5572 21.0029 21.0049 21.0029H3.00488C2.4526 21.0029 2.00488 20.5552 2.00488 20.0029V4.00293C2.00488 3.45064 2.4526 3.00293 3.00488 3.00293ZM10.0549 11.0029C10.2865 9.86181 11.2954 9.00293 12.5049 9.00293C13.1201 9.00293 13.6834 9.22515 14.1189 9.59369L15.8198 8.45969C14.9973 7.5642 13.8166 7.00293 12.5049 7.00293C10.1886 7.00293 8.28107 8.75295 8.03235 11.0029H7.00488V13.0029H8.03235C8.28107 15.2529 10.1886 17.0029 12.5049 17.0029C13.8166 17.0029 14.9973 16.4417 15.8198 15.5462L14.1188 14.4122C13.6833 14.7807 13.1201 15.0029 12.5049 15.0029C11.2954 15.0029 10.2865 14.144 10.0549 13.0029H15.0049V11.0029H10.0549Z"/></svg>

<svg xmlns="http://www.w3.org/2000/svg" viewBox="0 0 24 24">
    <g>
        <path fill="none" d="M0 0h24v24H0z"/>
        <path d="M3 3h18a1 1 0 0 1 1 1v16a1 1 0 0 1-1 1H3a1 1 0 0 1-1-1V4a1 1 0 0 1 1-1zm7.05 8a2.5 2.5 0 0 1 4.064-1.41l1.701-1.133A4.5 4.5 0 0 0 8.028 11H7v2h1.027a4.5 4.5 0 0 0 7.788 2.543l-1.701-1.134A2.5 2.5 0 0 1 10.05 13l4.95.001v-2h-4.95z"/>
    </g>
</svg>
